images/icons/v2/lock-outline-24.svg

<svg fill="none" height="21" viewBox="0 0 16 21" width="16" xmlns="http://www.w3.org/2000/svg"><path d="m13 8v-3c0-1.32608-.5268-2.59785-1.4645-3.53553-.9376-.937686-2.20942-1.46447-3.5355-1.46447s-2.59785.526784-3.53553 1.46447c-.93769.93768-1.46447 2.20945-1.46447 3.53553v3c-.79565 0-1.55871.31607-2.12132.87868-.562609.56261-.87868 1.32572-.87868 2.12132v7c0 .7956.316071 1.5587.87868 2.1213.56261.5626 1.32567.8787 2.12132.8787h10c.7956 0 1.5587-.3161 2.1213-.8787s.8787-1.3257.8787-2.1213v-7c0-.7956-.3161-1.55871-.8787-2.12132s-1.3257-.87868-2.1213-.87868zm-8.5-3c0-.92826.36875-1.8185 1.02513-2.47487.65637-.65638 1.54661-1.02513 2.47487-1.02513s1.8185.36875 2.4749 1.02513c.6564.65637 1.0251 1.54661 1.0251 2.47487v3h-7zm10 13c0 .3978-.158.7794-.4393 1.0607s-.6629.4393-1.0607.4393h-10c-.39782 0-.77936-.158-1.06066-.4393s-.43934-.6629-.43934-1.0607v-7c0-.3978.15804-.7794.43934-1.06066.2813-.2813.66284-.43934 1.06066-.43934h10c.3978 0 .7794.15804 1.0607.43934.2813.28126.4393.66286.4393 1.06066zm-5.75-3.208v2.208h-1.5v-2.208c-.28596-.1651-.50946-.4199-.63582-.725s-.14853-.6433-.06307-.9623c.08546-.3189.27378-.6008.53575-.8018.26196-.201.58294-.3099.91314-.3099s.65118.1089.91314.3099c.26197.201.45029.4829.53575.8018.08546.319.06329.6572-.06307.9623s-.34986.5599-.63582.725z" fill="#000"/></svg>

<svg width="16" height="21" viewBox="0 0 16 21" fill="none" xmlns="http://www.w3.org/2000/svg">
<path d="M13 8V5C13 3.67392 12.4732 2.40215 11.5355 1.46447C10.5979 0.526784 9.32608 0 8 0C6.67392 0 5.40215 0.526784 4.46447 1.46447C3.52678 2.40215 3 3.67392 3 5V8C2.20435 8 1.44129 8.31607 0.87868 8.87868C0.316071 9.44129 0 10.2044 0 11V18C0 18.7956 0.316071 19.5587 0.87868 20.1213C1.44129 20.6839 2.20435 21 3 21H13C13.7956 21 14.5587 20.6839 15.1213 20.1213C15.6839 19.5587 16 18.7956 16 18V11C16 10.2044 15.6839 9.44129 15.1213 8.87868C14.5587 8.31607 13.7956 8 13 8ZM4.5 5C4.5 4.07174 4.86875 3.1815 5.52513 2.52513C6.1815 1.86875 7.07174 1.5 8 1.5C8.92826 1.5 9.8185 1.86875 10.4749 2.52513C11.1313 3.1815 11.5 4.07174 11.5 5V8H4.5V5ZM14.5 18C14.5 18.3978 14.342 18.7794 14.0607 19.0607C13.7794 19.342 13.3978 19.5 13 19.5H3C2.60218 19.5 2.22064 19.342 1.93934 19.0607C1.65804 18.7794 1.5 18.3978 1.5 18V11C1.5 10.6022 1.65804 10.2206 1.93934 9.93934C2.22064 9.65804 2.60218 9.5 3 9.5H13C13.3978 9.5 13.7794 9.65804 14.0607 9.93934C14.342 10.2206 14.5 10.6022 14.5 11V18ZM8.75 14.792V17H7.25V14.792C6.96404 14.6269 6.74054 14.3721 6.61418 14.067C6.48782 13.7619 6.46565 13.4237 6.55111 13.1047C6.63657 12.7858 6.82489 12.5039 7.08686 12.3029C7.34882 12.1019 7.6698 11.993 8 11.993C8.3302 11.993 8.65118 12.1019 8.91314 12.3029C9.17511 12.5039 9.36343 12.7858 9.44889 13.1047C9.53435 13.4237 9.51218 13.7619 9.38582 14.067C9.25946 14.3721 9.03596 14.6269 8.75 14.792Z" fill="black"/>
</svg>
